frontend/src/images/star.svg

<?xml version="1.0" encoding="UTF-8" standalone="no"?>
<svg width="12px" height="12px" viewBox="0 0 12 12" version="1.1" xmlns="http://www.w3.org/2000/svg" xmlns:xlink="http://www.w3.org/1999/xlink">
    <!-- Generator: Sketch 47.1 (45422) - http://www.bohemiancoding.com/sketch -->
    <title>icon_launched</title>
    <desc>Created with Sketch.</desc>
    <defs></defs>
    <g id="Final" stroke="none" stroke-width="1" fill="none" fill-rule="evenodd">
        <g id="06.Featured-experiment_txp-Small-window_544px" transform="translate(-221.000000, -462.000000)" fill="#0094FB">
            <g id="experiment-title" transform="translate(153.000000, 398.000000)">
                <g id="tag-copy" transform="translate(68.000000, 61.000000)">
                    <g id="Page-1" transform="translate(0.000000, 3.000000)">
                        <g id="icon_launched">
                            <path d="M1.10006293,4.37193504 L1.10068616,4.37255826 L1.10006293,4.37193504 Z M10.899679,4.37255826 L10.8984325,4.37318149 L10.899679,4.37255826 Z M11.2013207,5.28059951 L11.2081762,5.28059951 L11.2013207,5.28059951 Z M2.72730775,11.9958668 C2.5858353,11.9958668 2.44436284,11.9522409 2.32345687,11.8668589 C2.10782045,11.7147916 1.9968861,11.4580222 2.03365647,11.1968902 L2.51852682,7.72738739 L0.1876591,5.22139298 C0.0131556349,5.03442498 -0.0448044447,4.76643751 0.0355917948,4.52337912 C0.116611261,4.27969749 0.324145739,4.09958499 0.576552538,4.05408944 L3.83727444,3.47199574 L5.3722817,0.388893437 C5.491318,0.149574399 5.73250672,0 5.99987095,0 C6.26785842,0 6.50842391,0.149574399 6.62808343,0.388893437 L8.1630907,3.47199574 L11.4219429,4.05408944 C11.6762194,4.09958499 11.8831306,4.27969749 11.9641501,4.52337912 C12.0451696,4.76643751 11.9865863,5.03442498 11.8114596,5.2220162 L9.48183832,7.72738739 L9.96670866,11.1975134 C10.003479,11.4580222 9.89192146,11.7147916 9.67690826,11.8668589 C9.46127184,12.0195494 9.18268952,12.0382462 8.94835629,11.9154706 L5.99987095,10.3798401 L3.05138561,11.9154706 C2.94917644,11.9690681 2.8382421,11.9958668 2.72730775,11.9958668 L2.72730775,11.9958668 Z" id="Fill-1"></path>
                        </g>
                    </g>
                </g>
            </g>
        </g>
    </g>
</svg>

<svg width="12" height="12" viewBox="0 0 12 12" xmlns="http://www.w3.org/2000/svg"><title>icon_launched</title><path d="M1.1 4.372zm9.8 0l-.002.001h.002zm.301.909h.007-.007zm-8.474 6.715a.7.7 0 0 1-.693-.8l.485-3.469L.188 5.221a.7.7 0 0 1 .389-1.167l3.26-.582L5.372.389A.698.698 0 0 1 6 0a.7.7 0 0 1 .628.389l1.535 3.083 3.259.582a.7.7 0 0 1 .39 1.168l-2.33 2.505.485 3.47a.698.698 0 0 1-.29.67.695.695 0 0 1-.729.048L6 10.38 3.05 11.915a.697.697 0 0 1-.324.08z" fill="#0094FB" fill-rule="evenodd"/></svg>
